components/ui-node-icon/src/removeDuplicateRows/removeDuplicateRows.medium.svg

<svg width="24" height="24" viewBox="0 0 24 24" fill="none" xmlns="http://www.w3.org/2000/svg">
  <path fill-rule="evenodd" clip-rule="evenodd" d="M6.22302 9H5C3.34315 9 2 10.3431 2 12V15H6.93552C6.33671 13.795 6 12.4368 6 11C6 10.3126 6.07706 9.64322 6.22302 9ZM15 20C16.8501 20 18.5699 19.4417 20 18.4845V19C20 20.6569 18.6569 22 17 22H5C3.34315 22 2 20.6569 2 19V16H7.51555C9.13007 18.412 11.8796 20 15 20Z" fill="var(--tbl--colors--icons--clean--secondary)"/>
  <path fill-rule="evenodd" clip-rule="evenodd" d="M15 19C19.4183 19 23 15.4183 23 11C23 6.58172 19.4183 3 15 3C10.5817 3 7 6.58172 7 11C7 15.4183 10.5817 19 15 19ZM13.2071 7.79289C12.8166 7.40237 12.1834 7.40237 11.7929 7.79289C11.4024 8.18342 11.4024 8.81658 11.7929 9.20711L13.5858 11L11.7929 12.7929C11.4024 13.1834 11.4024 13.8166 11.7929 14.2071C12.1834 14.5976 12.8166 14.5976 13.2071 14.2071L15 12.4142L16.7929 14.2071C17.1834 14.5976 17.8166 14.5976 18.2071 14.2071C18.5976 13.8166 18.5976 13.1834 18.2071 12.7929L16.4142 11L18.2071 9.20711C18.5976 8.81658 18.5976 8.18342 18.2071 7.79289C17.8166 7.40237 17.1834 7.40237 16.7929 7.79289L15 9.58579L13.2071 7.79289Z" fill="var(--tbl--colors--icons--clean--primary)"/>
</svg>

<svg xmlns="http://www.w3.org/2000/svg" width="24" height="24" fill="none" viewBox="0 0 24 24">
  <path fill="var(--tbl--colors--icons--clean--secondary)" fill-rule="evenodd" d="M6.223 9H5a3 3 0 0 0-3 3v3h4.936A8.963 8.963 0 0 1 6 11c0-.687.077-1.357.223-2ZM15 20c1.85 0 3.57-.558 5-1.515V19a3 3 0 0 1-3 3H5a3 3 0 0 1-3-3v-3h5.516A8.991 8.991 0 0 0 15 20Z" clip-rule="evenodd"/>
  <path fill="var(--tbl--colors--icons--clean--primary)" fill-rule="evenodd" d="M15 19a8 8 0 1 0 0-16 8 8 0 0 0 0 16ZM13.207 7.793a1 1 0 1 0-1.414 1.414L13.586 11l-1.793 1.793a1 1 0 0 0 1.414 1.414L15 12.414l1.793 1.793a1 1 0 0 0 1.414-1.414L16.414 11l1.793-1.793a1 1 0 0 0-1.414-1.414L15 9.586l-1.793-1.793Z" clip-rule="evenodd"/>
</svg>
